assets/features/global-acquiring/vector-3.svg

<svg width="19" height="19" viewBox="0 0 19 19" fill="none" xmlns="http://www.w3.org/2000/svg">
<path d="M7.69894 9.99793L7.89703 10.196C7.94985 10.2488 8.00268 10.2984 8.0555 10.3446C8.10832 10.3908 8.16115 10.4403 8.21397 10.4932L8.45168 10.7309C8.7158 10.995 8.82144 11.2261 8.76862 11.4242C8.7158 11.6223 8.55072 11.8534 8.2734 12.1175C8.15454 12.2495 7.95976 12.4509 7.68904 12.7217C7.41831 12.9924 7.12778 13.2862 6.81745 13.6031C6.50711 13.9201 6.20667 14.2238 5.91614 14.5144C5.62561 14.8049 5.40111 15.036 5.24264 15.2077C5.00493 15.4454 4.83986 15.6534 4.74742 15.8316C4.65498 16.0099 4.6946 16.1849 4.86627 16.3566C4.98513 16.4754 5.13699 16.6339 5.32188 16.832C5.50676 17.0301 5.66523 17.1952 5.79729 17.3272C6.02179 17.5517 6.10433 17.7498 6.0449 17.9215C5.98547 18.0932 5.79069 18.1922 5.46054 18.2186C5.11718 18.2582 4.73421 18.3045 4.31162 18.3573C3.88903 18.4101 3.45324 18.4596 3.00424 18.5058C2.55524 18.5521 2.11614 18.6016 1.68695 18.6544C1.25776 18.7072 0.86488 18.7535 0.50832 18.7931C0.164966 18.8327 -0.07274 18.7898 -0.204799 18.6643C-0.336858 18.5389 -0.389682 18.3177 -0.36327 18.0007C-0.336858 17.6706 -0.300542 17.3008 -0.254321 16.8914C-0.208101 16.482 -0.158578 16.0627 -0.105755 15.6336C-0.0529311 15.2044 -0.00340894 14.7785 0.0428118 14.3559C0.0890325 13.9333 0.131952 13.5437 0.171569 13.1872C0.211187 12.8042 0.320136 12.5599 0.498416 12.4542C0.676696 12.3486 0.878086 12.408 1.10259 12.6325C1.23465 12.7646 1.40632 12.9263 1.61762 13.1178C1.82891 13.3093 2.00719 13.4777 2.15246 13.623C2.29772 13.7682 2.43638 13.8144 2.56844 13.7616C2.7005 13.7088 2.85237 13.6031 3.02405 13.4447C3.19572 13.273 3.43013 13.0353 3.72726 12.7316C4.02439 12.4278 4.33473 12.1142 4.65828 11.7906C4.98182 11.4671 5.29546 11.1502 5.5992 10.8398C5.90294 10.5295 6.14725 10.2819 6.33213 10.097C6.41136 10.0177 6.5005 9.94181 6.59955 9.86918C6.69859 9.79654 6.80754 9.74702 6.92639 9.72061C7.04525 9.6942 7.1674 9.7008 7.29286 9.74042C7.41832 9.78004 7.55368 9.86588 7.69894 9.99793ZM17.7222 0.0142624C18.0656 -0.0253553 18.3033 0.0175638 18.4354 0.14302C18.5674 0.268476 18.6202 0.489675 18.5938 0.806617C18.5674 1.13677 18.5311 1.50653 18.4849 1.91591C18.4387 2.3253 18.3891 2.74459 18.3363 3.17378C18.2835 3.60297 18.234 4.03216 18.1877 4.46135C18.1415 4.89055 18.0986 5.28342 18.059 5.63998C18.0194 6.02295 17.9104 6.26396 17.7321 6.36301C17.5539 6.46205 17.3525 6.39932 17.128 6.17482C16.9959 6.04276 16.8143 5.87109 16.5832 5.65979C16.3521 5.4485 16.1639 5.27022 16.0187 5.12495C15.8734 4.97969 15.7479 4.91696 15.6423 4.93677C15.5367 4.95658 15.4046 5.04572 15.2461 5.20419C15.0612 5.38907 14.8202 5.63338 14.5231 5.93712C14.226 6.24085 13.9123 6.56109 13.5822 6.89785C13.252 7.2346 12.9285 7.56144 12.6115 7.87838L11.8786 8.61131C11.7994 8.69055 11.7135 8.76978 11.6211 8.84902C11.5287 8.92825 11.4263 8.98768 11.3141 9.0273C11.2018 9.06692 11.083 9.07352 10.9575 9.04711C10.832 9.0207 10.7033 8.93486 10.5712 8.78959L9.81849 8.03686C9.55437 7.77274 9.43882 7.53173 9.47184 7.31383C9.50485 7.09593 9.65342 6.85493 9.91753 6.59081C10.0364 6.47195 10.2345 6.27056 10.5118 5.98664C10.7891 5.70271 11.0863 5.40228 11.4032 5.08533C11.7201 4.76839 12.0272 4.45805 12.3243 4.15432C12.6214 3.85058 12.8559 3.61948 13.0275 3.46101C13.2652 3.2233 13.4138 3.02851 13.4732 2.87664C13.5327 2.72478 13.4765 2.563 13.3049 2.39133C13.186 2.27247 13.044 2.12721 12.879 1.95553C12.7139 1.78385 12.5653 1.63199 12.4333 1.49993C12.2088 1.27543 12.1262 1.07734 12.1857 0.905662C12.2451 0.733985 12.4399 0.628337 12.77 0.58872C13.1002 0.549102 13.4798 0.502881 13.909 0.450058C14.3382 0.397234 14.7773 0.347712 15.2263 0.301491C15.6753 0.25527 16.1144 0.205748 16.5436 0.152924C16.9728 0.100101 17.3657 0.0538801 17.7222 0.0142624Z" fill="#3C4A66"/>
</svg>

<svg xmlns="http://www.w3.org/2000/svg" width="19" height="19" fill="none" viewBox="0 0 19 19"><path fill="#3c4a66" d="m7.699 9.998.198.198q.08.079.159.149.078.069.158.148l.238.238q.396.396.317.693-.08.298-.496.694-.177.197-.584.604-.405.405-.872.881-.465.475-.9.911-.437.435-.674.694-.357.356-.496.624-.138.267.12.525.177.178.455.475.277.297.475.495.337.337.248.595-.09.256-.584.297-.516.06-1.15.138-.633.08-1.307.149-.673.07-1.317.148-.644.08-1.179.14-.514.059-.713-.13-.198-.187-.158-.663.039-.495.109-1.11.069-.613.148-1.257.08-.645.149-1.278l.129-1.169q.06-.574.326-.733.268-.158.605.178.197.199.515.486.317.287.534.505.218.217.416.139a1.6 1.6 0 0 0 .456-.317q.258-.258.703-.713.446-.456.931-.941t.941-.951.733-.743q.119-.12.268-.228a.9.9 0 0 1 .326-.148.7.7 0 0 1 .367.02q.187.059.406.257M17.722.014q.515-.06.713.129.198.188.159.664-.04.495-.11 1.109-.068.615-.148 1.258-.078.643-.148 1.287t-.129 1.179q-.06.574-.327.723-.267.148-.604-.188a18 18 0 0 0-.545-.515q-.347-.318-.564-.535-.218-.218-.377-.188-.157.03-.396.267-.277.278-.723.733l-.94.96q-.496.506-.972.981l-.732.733q-.12.12-.258.238a1 1 0 0 1-.307.178.65.65 0 0 1-.357.02q-.188-.04-.386-.257l-.753-.753q-.396-.396-.346-.723.049-.328.446-.723.178-.179.594-.604.415-.426.891-.902.476-.475.921-.93.446-.457.704-.694.356-.357.445-.584.09-.228-.168-.486a31 31 0 0 1-.426-.435 33 33 0 0 0-.446-.456q-.337-.338-.247-.594.09-.258.584-.317L13.909.45q.644-.079 1.317-.149.674-.069 1.318-.148.644-.08 1.178-.139"/></svg>
